X: 689
T: Jim Shank
B: jims roots
M:C|
L:1/8
Q: 1/4=100
K:A
V:1 
"A"e3f e2c2|"D"d2f2 B4|"A"e3f e2c2||"D"fefg a2a2|
"A"e2 ef e2c2|"D"defd B3B|"A"cBAc "E"BA G2|[1 "A"A4 A4:|[2 "A"A4 A2||
|:AB|"A"cBAc BAGA|"E"B6 AB|"A"cBAc "E"BAG2|"A"A3BA2 AB|
"A"cBAc BAGA|"E"B3cB2 AB|"A"cBAc"E"BAG2|A4A4:|
% abcbook-tune_id 6298c25d01b211502fbb1d45


% abcbook-boost 0
% abcbook-tablature 
% abcbook-transpose 
% abcbook-lastupdated 1654178399203
% abcbook-soundfonts 
% abcbook-repeats 1


